src/pos-icons/hexagram-outline.svg

<svg height="24" viewBox="0 0 24 24" width="24" xmlns="http://www.w3.org/2000/svg"><path d="m12 7 1.3 2.8 3.2-.4-2 2.6 1.9 2.5-3.2-.4-1.2 2.9-1.3-2.8-3.2.4 2-2.6-1.9-2.5 3.2.4zm0-5-2.5 5.7-6.2-.7 3.7 5-3.6 5 6.2-.7 2.4 5.7 2.5-5.7 6.2.6-3.7-4.9 3.6-5-6.2.7z"/></svg>

<?xml version="1.0" encoding="UTF-8"?><!DOCTYPE svg PUBLIC "-//W3C//DTD SVG 1.1//EN" "http://www.w3.org/Graphics/SVG/1.1/DTD/svg11.dtd"><svg xmlns="http://www.w3.org/2000/svg" xmlns:xlink="http://www.w3.org/1999/xlink" version="1.1" id="mdi-hexagram-outline" width="24" height="24" viewBox="0 0 24 24"><path d="M12,7L13.3,9.8L16.5,9.4L14.5,12L16.4,14.5L13.2,14.1L12,17L10.7,14.2L7.5,14.6L9.5,12L7.6,9.5L10.8,9.9L12,7M12,2L9.5,7.7L3.3,7L7,12L3.4,17L9.6,16.3L12,22L14.5,16.3L20.7,16.9L17,12L20.6,7L14.4,7.7L12,2Z" /></svg>
